X:167
T: KEIN ALTER IST VON LIEBE FREI
N: B0654
O: Europa, Mitteleuropa, Deutschland
R: Moral - Lied, Liebe
M: 4/4
L: 1/8
K: E
B,2 | E2E2G2G2 | B2B2G2z
B | A3BG3A | FBBBB2
B,2 | E2E2G2G2 | B2B2G2z
B | A3BG3A | FBBBB2
B2 | B4c2d2 | e6B2 | B3cB2A2 | A4G2
B2 | B4c2d2 | e6B2 | B3cB2A2 | A4G2
B2 | A2G2F2E2 | D2E2F2
B2 | A2G2F2E2 | D2E2F2
B2 | B2B2G2E2 | c6A2 | G4F4 | E4z2

@@@ Tune index: 2385
